X:1
T:Title
%%score { ( 1 3 ) | ( 2 4 ) }
L:1/8
M:4/4
K:D
V:1 treble nm="Grand Piano"
V:3 treble 
V:2 bass 
V:4 bass 
V:1
 z4 z2[Q:1/4=100] [F,D]2 | [A,DF]2 [A,DF]2- [A,DF][G,CE][A,DF][K:bass][G,CE] | %2
 [G,CE]2 [F,D]4[K:treble] [A,DF]2 | [DFA]2 [DGB]2 [DFA]2 [A,DF]2 | %4
[M:3/4][K:bass] [G,CE][F,D][K:treble] [G,CE][A,DF][K:bass] [G,CE]2 |[M:1/4] [F,D]2 | %6
[M:4/4][K:treble] [A,DF]2 [A,DF]2- [A,DF][G,CE][A,DF][G,CE] | [G,CE]2 D2- DFFF | E2 d2 c2 B2 | %9
[M:3/4] A2- [EA-][FA-] [GA]2 |[M:1/4] A2 |[M:4/4] c2 c2- cBcB | [GB]2 [FA]2- [FA]FED | %13
 C2 [CA]2- [CA][EG][DF][K:bass][G,CE] |[M:3/4] [F,D][K:treble][B,GB] [DFA]4 |[M:1/4] [DFA]2 | %16
[M:4/4] [EGc]2 [EGc]2- [EGc][DGB][EGc][DGB] | [DGB]2 [DFA]2- [DFA]FED | C2 [CA]2 [CG]2 [CE]2 | %19
[M:3/4] D6 |] %20
V:2
 z4 z2 D,2 | D,2 D,2- D,A,,A,,A,, | A,,2 D,4 D,2 | D,2 D,2 D,2 D,2 |[M:3/4] A,,A,, A,,A,, A,,2 | %5
[M:1/4] D,2 |[M:4/4] D,2 D,2- D,A,,A,,A,, | A,,2 [D,F,]2- [D,F,][D,A,D][D,A,D][D,A,D] | %8
 [E,^G,]2 [E,G,D]2 [E,A,E]2 [E,G,D]2 |[M:3/4] z2[K:treble] CD E2 |[M:1/4] [A,EG]2 | %11
[M:4/4] [A,EG]2 [A,EG]2- [A,EG][A,DG][A,EG][A,DG] | [E,D]2 [D,D]2- [D,D][D,A,D][E,G,C][F,A,] | %13
 [A,,A,]2 [A,,E,]2- [A,,E,][A,,A,][A,,A,]A,, |[M:3/4] D,D, D,4 |[M:1/4] D,2 | %16
[M:4/4] A,2 A,2- A,A,A,A, | D,2 D,2- D,A,G,F, | E,2 [A,,E,]2 [A,,A,]2 [A,,G,]2 |[M:3/4] [D,F,]6 |] %20
V:3
 x8 | x7[K:bass] x | x6[K:treble] x2 | x8 |[M:3/4][K:bass] x2[K:treble] x2[K:bass] x2 |[M:1/4] x2 | %6
[M:4/4][K:treble] x8 | x8 | x8 |[M:3/4] [A,C]2 z2 z2 |[M:1/4] x2 |[M:4/4] x8 | x8 | x7[K:bass] x | %14
[M:3/4] x[K:treble] x5 |[M:1/4] x2 |[M:4/4] x8 | x8 | x8 |[M:3/4] x6 |] %20
V:4
 x8 | x8 | x8 | x8 |[M:3/4] x6 |[M:1/4] x2 |[M:4/4] x8 | x8 | x8 |[M:3/4] A,,6[K:treble] | %10
[M:1/4] x2 |[M:4/4] x8 | x8 | x8 |[M:3/4] x6 |[M:1/4] x2 |[M:4/4] x8 | x8 | x8 |[M:3/4] x6 |] %20

